!!!!SEGMENT: pl-kk--kk-i-334--002_costanzi-giovanni-battista--tantum-ergo-genitori.krn
!!!cenid: 17xx:1935
!!!COM: Costanzi, Giovanni Battista
!!!COM-rism: pe20000434
!!!CDT: 1704-1778
!!!CNT: Italian
!!!OTL: Tantum ergo – Genitori
!!!PDT:
!!!AGN: Sacred
!!!SMS-siglum: PL-Kk
!!!SMS-shelfmark: Kk.I.334
!!!NIFC-rismID: 1001143656
!!!URL-scan: http://repozytorium.nifc.pl/skany/pl-kk-nut--i-334
!!!ONB-nifc: UWAGA: części Tantum ergo: 1. Tantum ergo, 2. Genitori, 3. Amen
!!!SMS-variant:
!!!SMS-altvar:
**kern	**fb	**kern	**text
*part2	*	*part1	*part1
*staff2	*	*staff1	*staff1
*I"Organo	*	*I"Canto Solo	*
*I'org	*	*I'S solo	*
*clefF4	*	*clefC1	*
*k[f#]	*	*k[f#]	*
*M2/4	*	*M2/4	*
=1	=1	=1	=1
*all\right	*	*all\right	*
!LO:TX:t=P:problem:pięciolinia pomocnicza z partią sopranu	!	!LO:TX:a:t=Allo	!
!LO:TX:a:t=Allo	!	!LO:TX:b:t=2	!
!	!	!LO:N:vis=0	!
4c\	.	1r	.
8d\L	.	.	.
16c\L	.	.	.
16B\JJ	.	.	.
=2	=2	=2	=2
8c\L	.	.	.
8G\J	.	.	.
4C/	.	.	.
=3	=3	=3	=3
4c\	.	(4cc\	Ge-
4C/	.	8dd\)	.
.	.	16cc\LL	-ni-
.	.	16b\JJ	.
=4	=4	=4	=4
4C/	.	8cc\	-to-
.	.	8g\	-ri
8E\L	.	4r	.
8G\J	.	.	.
=5	=5	=5	=5
4C/	.	(4ee\	ge-
4Fn\	.	8ffn\)	.
.	.	16ee\LL	-ni-
.	.	16dd\JJ	.
!LO:LB:g=original	!	!LO:LB:g=original	!
=6	=6	=6	=6
8G\L	.	8b\	-to-
16E\L	.	8cc\	-que
16D\JJ	.	.	.
8E\L	.	4r	.
8E\J	.	.	.
=7	=7	=7	=7
!LO:TX:t=P:problem:mixed beam	!	!	!
8C/L	5	8ee\	Lauſ
8c\	.	4cc\	.
8c\	.	.	.
8c\J	6	8a\	et
=8	=8	=8	=8
8B\L	7	8dd\	iu-
8B\	.	4b\	.
8B\	6	.	.
8B\J	.	8g\	-bi-
=9	=9	=9	=9
8A\L	#6	16cc\LL	-la-
.	.	16b\	.
8F#X\J	.	16cc\	.
.	.	16dd\JJ	.
!LO:TX:t=P:problem:mixed beam	!	!LO:LB:g=original	!
8G\L	.	16b\LL	.
.	.	16a\	.
8GG/J	.	16b\JJ	.
.	.	16cc\	-ti-
=10	=10	=10	=10
.	.	8qqb/	.
8D\L	#3	8a\	-o
8D\	.	8r	.
8D\	.	8dd\	sa-
8D\J	.	8dd\	-luſ
!LO:LB:g=original	!	!	!
=11	=11	=11	=11
8E\L	.	8dd\L	ho-
8E\J	.	8b\J	.
16E\LL	.	4cc\	-nor
16c\	.	.	.
16B\	.	.	.
16c\JJ	.	.	.
!	!	!LO:LB:g=original	!
=12	=12	=12	=12
8F#X\L	5	8.cc\L	uir-
8F#\	.	.	.
.	.	16dd\K	.
8F#\	.	8ee\J	.
8F#\J	.	16dd\LL	-tuſ
.	.	16cc\JJ	.
=13	=13	=13	=13
8G\L	5 4	4cc\	quo-
8G\	.	.	.
8G\	5 3	4b\	-que
8G\J	.	.	.
=14	=14	=14	=14
!LO:TX:t=P:problem:mixed beam	!	!	!
8GG/L	.	4.dd\	sit
8G\J	.	.	.
!LO:TX:t=P:problem:mixed beam	!	!	!
8GG/L	#7	.	.
8G\J	.	16ee\LL	et
.	.	16cc\JJ	.
=15	=15	=15	=15
!LO:TX:t=P:problem:mixed beam	!	!	!
.	.	8qqee/	.
8GG/L	5	4.b\	be-
8G\J	.	.	.
!LO:TX:t=P:problem:mixed beam	!	!	!
8GG/L	7	.	.
8G\J	.	16cc\LL	-ne-
.	.	16a\JJ	.
!	!	!LO:LB:g=original	!
=16	=16	=16	=16
!LO:TX:t=P:problem:mixed beam	!	!	!
8GG/L	5	4.g\	-di-
8G\J	.	.	.
!LO:TX:t=P:problem:mixed beam	!	!	!
8GG/L	7	.	.
8G\J	.	16a\	.
.	.	16f#X/	-cti-
!LO:LB:g=original	!	!	!
=17	=17	=17	=17
!LO:TX:t=P:problem:mixed beam	!	!	!
8GG/L	.	4g/	-o
8G\J	.	.	.
!LO:TX:t=P:problem:mixed beam	!	!	!
8BB/L	.	8.dd\	pro-
8B\J	.	.	.
.	.	16g\	-ce-
=18	=18	=18	=18
8c\L	.	4ee\	-den-
8c\	.	.	.
8B\	.	4dd\	-ti
8B\J	.	.	.
=19	=19	=19	=19
8A\L	#6	4cc\	ab
8A\	.	.	.
8G\	.	4b\	u-
8G\J	.	.	.
!	!	!LO:LB:g=original	!
=20	=20	=20	=20
8D/L	6 4	4bt\	-tro-
8D/	.	.	.
8D/	5 #3	4a\	-que
8D/J	.	.	.
=21	=21	=21	=21
8F#X\L	5	8a\	com-
8D\	.	(4a\	-par
8F#\	.	.	.
8D\J	.	8cc\)	.
=22	=22	=22	=22
8G\L	5 #	4b\	sit
8D\	.	.	.
8G\	.	4dd\	Lau-
8D\J	.	.	.
!LO:LB:g=original	!	!	!
=23	=23	=23	=23
.	.	8qqdd/	.
8A\L	.	8cc\L	-da-
8D\	.	16b\L	.
.	.	16a\JJ	.
.	.	8qqee/	.
8A\	.	8cc\L	.
8D\J	.	16b\L	.
.	.	16a\JJ	.
!	!	!LO:LB:g=original	!
=24	=24	=24	=24
8G\L	.	16b\LL	.
.	.	16cc\	.
8D\	.	16dd\	.
.	.	16cc\JJ	.
8G\	.	8dd\	.
8D\J	.	8r	.
=25	=25	=25	=25
8F#X\L	.	16a\LL	.
.	.	16b\	.
8D\	.	16cc\	.
.	.	16b\JJ	.
8F#\	.	8cc\	.
8D\J	.	8r	.
=26	=26	=26	=26
4G\	.	16b\LL	.
.	.	16cc\	.
.	.	16dd\	.
.	.	16cc\JJ	.
8B\L	.	8dd\L	.
8G\J	.	8b\J	.
!	!	!LO:LB:g=original	!
=27	=27	=27	=27
8c\L	.	16ee\LL	.
.	.	16ff#X\	.
8c\	.	16gg\	.
.	.	16ff#\JJ	.
8c\	.	16gg\LL	.
.	.	16ee\	.
8c\J	.	16dd\	.
.	.	16cc\JJ	.
!LO:LB:g=original	!	!	!
=28	=28	=28	=28
!LO:TX:t=P:problem:mixed beam	!	!	!
8d\L	.	4b\	.
8d\	.	.	.
8D/	.	4aT\	.
8D/J	.	.	.
=29	=29	=29	=29
8G\L	.	4g\	.
8E\J	.	.	.
8C/L	.	4r	.
8D/J	.	.	.
=30	=30	=30	=30
!	!	!LO:TX:b:t=1	!
4GG/	.	2r	.
!LO:TX:b:t=VS. Uolti	!	!	!
!LO:TX:a:t=Seque	!	!	!
4r	.	.	.
==	==	==	==
*-	*-	*-	*-
!!!system-decoration: {s1,s2}
!!!ENC: Marta Lawrence
!!!END: 2021-02-20
!!!ENC: Krzysztof Stępień
!!!END: 2021-02-06
